elements/app-hax/lib/wired-darkmode-toggle/images/sun.svg

<svg xmlns="http://www.w3.org/2000/svg" fill="none" width="53" height="55" viewBox="0 0 53 55"><path d="M11.5 19.5h2v-2h2v-2h4v-2h4v-2h4v2h6v2h4v2h2v4h2v2h2v10h-2v4c-.5.167-1.6.4-2 0-.4-.4-.167 1.167 0 2h-2v2h-4v2h-16v-2h-2v-2h-2v-2h-2v-2h-2v-12h2v-4Z" fill="#FFFBDC"/><path d="M23 12v-1h1v1h-1Zm2 0v-1h1v1h-1Zm2 0v-1h1v1h-1Zm0 2v-1h1v1h-1Zm2 0v-1h1v1h-1Zm2 0v-1h1v1h-1Zm2 0v-1h1v1h-1Zm-10 0v-1h1v1h-1Zm-2 0v-1h1v1h-1Zm-2 0v-1h1v1h-1Zm0 2v-1h1v1h-1Zm-2 0v-1h1v1h-1Zm-2 0v-1h1v1h-1Zm0 2v-1h1v1h-1Zm-2 0v-1h1v1h-1Zm0 2v-1h1v1h-1Zm-2 0v-1h1v1h-1Zm0 2v-1h1v1h-1Zm0 2v-1h1v1h-1Zm-2 0v-1h1v1H9Zm0 2v-1h1v1H9Zm4 0v-1h1v1h-1Zm-4 4v-1h1v1H9Zm4 0v-1h1v1h-1Zm2 0v-1h1v1h-1Zm2 0v-1h1v1h-1Zm2 0v-1h1v1h-1ZM9 32v-1h1v1H9Zm0 2v-1h1v1H9Zm0 2v-1h1v1H9Zm2 0v-1h1v1h-1Zm0 2v-1h1v1h-1Zm2 0v-1h1v1h-1Zm0 2v-1h1v1h-1Zm2 0v-1h1v1h-1Zm0 2v-1h1v1h-1Zm28-12v-1h1v1h-1Zm0 2v-1h1v1h-1Zm0 2v-1h1v1h-1Zm-4-4v-1h1v1h-1Zm2 4v-1h1v1h-1Zm0 2v-1h1v1h-1Zm0 2v-1h1v1h-1Zm-2 2v-1h1v1h-1Zm-2 0v-1h1v1h-1Zm0 2v-1h1v1h-1Zm-2 0v-1h1v1h-1Zm-2 2v-1h1v1h-1Zm-2 0v-1h1v1h-1Zm-2 0v-1h1v1h-1Zm-2 0v-1h1v1h-1Zm-2 0v-1h1v1h-1Zm-2 0v-1h1v1h-1Zm-2 0v-1h1v1h-1Zm-2 0v-1h1v1h-1Zm-2 0v-1h1v1h-1Zm0-2v-1h1v1h-1Zm16-4v-1h1v1h-1Zm0-2v-1h1v1h-1Zm-2 2v-1h1v1h-1Zm-2 0v-1h1v1h-1Zm-2 0v-1h1v1h-1Zm-2 0v-1h1v1h-1Zm-2 0v-1h1v1h-1Zm-2 0v-1h1v1h-1Zm0-2v-1h1v1h-1Zm-2-1v1h1v-1h-1Zm12-5v-1h1v1h-1Zm-8 0v-1h1v1h-1Zm-2 0v-1h1v1h-1Zm2-4v-1h1v1h-1Zm-2 0v-1h1v1h-1Zm-2 0v-1h1v1h-1Zm-2 0v-1h1v1h-1Zm-2 0v-1h1v1h-1Zm22 0v-1h1v1h-1Zm-2 0v-1h1v1h-1Zm-2 0v-1h1v1h-1Zm4 4v-1h1v1h-1Zm-4 0v-1h1v1h-1Zm-2-4v-1h1v1h-1Zm4 4v-1h1v1h-1Zm-2 12v-1h1v1h-1Zm6-4v-1h1v1h-1Zm-6-22v-1h1v1h-1Zm2 0v-1h1v1h-1Zm2 0v-1h1v1h-1Zm0 2v-1h1v1h-1Zm2 0v-1h1v1h-1Zm0 2v-1h1v1h-1Zm0 2v-1h1v1h-1Zm2 0v-1h1v1h-1Zm0 1v1h1v-1h-1Zm2 0v1h1v-1h-1Zm0 2v1h1v-1h-1Zm-4 0v1h1v-1h-1Zm6 2v1h1v-1h-1Zm-2 0v1h1v-1h-1Zm-2 0v1h1v-1h-1Zm-2 0v1h1v-1h-1Zm-2 0v1h1v-1h-1Zm-2 0v1h1v-1h-1Zm-2 0v1h1v-1h-1Zm-2 0v1h1v-1h-1Zm-2 0v1h1v-1h-1Zm-2 0v1h1v-1h-1Zm-2 0v1h1v-1h-1Zm-2 0v1h1v-1h-1Zm-2 0v1h1v-1h-1Zm-2 0v1h1v-1h-1Zm-2 0v1h1v-1h-1Zm-2 0v1h1v-1h-1Zm-2 0v1h1v-1h-1Zm-2 0v1h1v-1h-1Zm-2 0v1h1v-1H9Zm-2 0v1h1v-1H7ZM27 9v1h1V9h-1Zm0-2v1h1V7h-1Zm2 0v1h1V7h-1Zm0-2v1h1V5h-1Zm0-2v1h1V3h-1Zm0-2v1h1V1h-1Zm6 10v1h1v-1h-1Zm2-2v1h1V9h-1Zm2-2v1h1V7h-1Zm2-2v1h1V5h-1Zm-22 6v1h1v-1h-1Zm-2 0v1h1v-1h-1Zm0-2v1h1V9h-1Zm0-2v1h1V7h-1Zm0-2v1h1V5h-1Zm-2 0v1h1V5h-1Zm1-2v1h-1V3h1Zm-4 10v1h-1v-1h1Zm-2 0v1H9v-1h1Zm0-2v1H9v-1h1Zm-2 0v1H7v-1h1Zm0-2v1H7V9h1Zm0-2v1H7V7h1ZM6 20v1H5v-1h1Zm-2 0v1H3v-1h1Zm-2 0v1H1v-1h1Zm4 11v1H5v-1h1Zm0 2v1H5v-1h1Zm-2 2v1H3v-1h1Zm-2 2v1H1v-1h1Zm8 2v1H9v-1h1Zm0 2v1H9v-1h1Zm0 2v1H9v-1h1Zm-2 0v1H7v-1h1Zm0 2v1H7v-1h1Zm0 2v1H7v-1h1Zm12-2v1h-1v-1h1Zm0 2v1h-1v-1h1Zm0 2v1h-1v-1h1Zm2 0v1h-1v-1h1Zm0 2v1h-1v-1h1Zm0 2v1h-1v-1h1Zm9-8v1h-1v-1h1Zm0 2v1h-1v-1h1Zm0 2v1h-1v-1h1Zm0 2v1h-1v-1h1Zm9-8v1h-1v-1h1Zm2 2v1h-1v-1h1Zm2 2v1h-1v-1h1Zm2-8v1h-1v-1h1Zm2 0v1h-1v-1h1Zm2-2v1h-1v-1h1Zm2 0v1h-1v-1h1Zm-6-6v1h-1v-1h1Zm2 0v1h-1v-1h1Zm2 0v1h-1v-1h1Zm2-2v1h-1v-1h1Zm-4-6v1h-1v-1h1Zm2-2v1h-1v-1h1Zm2 0v1h-1v-1h1Zm-9-4v1h1v-1h-1Zm0-2v1h1v-1h-1Zm2 0v1h1v-1h-1Zm0-2v1h1v-1h-1Zm2 0v1h1v-1h-1Zm2 0v1h1v-1h-1Zm2 0v1h1v-1h-1ZM39 9v1h1V9h-1Zm2-2v1h1V7h-1Z" stroke="#000"/></svg>

<svg width="53" height="55" viewBox="0 0 53 55" fill="none" xmlns="http://www.w3.org/2000/svg">
<path d="M11.5 19.5H13.5V17.5H15.5V15.5H19.5V13.5H23.5V11.5H27.5V13.5H33.5V15.5H37.5V17.5H39.5V21.5H41.5V23.5H43.5V33.5H41.5V37.5C41 37.6667 39.9 37.9 39.5 37.5C39.1 37.1 39.3333 38.6667 39.5 39.5H37.5V41.5H37H33.5V43.5H17.5V41.5H15.5V39.5H13.5V37.5H11.5V35.5H9.5V35V23.5H11.5V19.5Z" fill="#FFFBDC"/>
<path d="M23 12V11H24V12H23Z" stroke="black"/>
<path d="M25 12V11H26V12H25Z" stroke="black"/>
<path d="M27 12V11H28V12H27Z" stroke="black"/>
<path d="M27 14V13H28V14H27Z" stroke="black"/>
<path d="M29 14V13H30V14H29Z" stroke="black"/>
<path d="M31 14V13H32V14H31Z" stroke="black"/>
<path d="M33 14V13H34V14H33Z" stroke="black"/>
<path d="M23 14V13H24V14H23Z" stroke="black"/>
<path d="M21 14V13H22V14H21Z" stroke="black"/>
<path d="M19 14V13H20V14H19Z" stroke="black"/>
<path d="M19 16V15H20V16H19Z" stroke="black"/>
<path d="M17 16V15H18V16H17Z" stroke="black"/>
<path d="M15 16V15H16V16H15Z" stroke="black"/>
<path d="M15 18V17H16V18H15Z" stroke="black"/>
<path d="M13 18V17H14V18H13Z" stroke="black"/>
<path d="M13 20V19H14V20H13Z" stroke="black"/>
<path d="M11 20V19H12V20H11Z" stroke="black"/>
<path d="M11 22V21H12V22H11Z" stroke="black"/>
<path d="M11 24V23H12V24H11Z" stroke="black"/>
<path d="M9 24V23H10V24H9Z" stroke="black"/>
<path d="M9 26V25H10V26H9Z" stroke="black"/>
<path d="M13 26V25H14V26H13Z" stroke="black"/>
<path d="M9 30V29H10V30H9Z" stroke="black"/>
<path d="M13 30V29H14V30H13Z" stroke="black"/>
<path d="M15 30V29H16V30H15Z" stroke="black"/>
<path d="M17 30V29H18V30H17Z" stroke="black"/>
<path d="M19 30V29H20V30H19Z" stroke="black"/>
<path d="M9 32V31H10V32H9Z" stroke="black"/>
<path d="M9 34V33H10V34H9Z" stroke="black"/>
<path d="M9 36V35H10V36H9Z" stroke="black"/>
<path d="M11 36V35H12V36H11Z" stroke="black"/>
<path d="M11 38V37H12V38H11Z" stroke="black"/>
<path d="M13 38V37H14V38H13Z" stroke="black"/>
<path d="M13 40V39H14V40H13Z" stroke="black"/>
<path d="M15 40V39H16V40H15Z" stroke="black"/>
<path d="M15 42V41H16V42H15Z" stroke="black"/>
<path d="M43 30V29H44V30H43Z" stroke="black"/>
<path d="M43 32V31H44V32H43Z" stroke="black"/>
<path d="M43 34V33H44V34H43Z" stroke="black"/>
<path d="M39 30V29H40V30H39Z" stroke="black"/>
<path d="M41 34V33H42V34H41Z" stroke="black"/>
<path d="M41 36V35H42V36H41Z" stroke="black"/>
<path d="M41 38V37H42V38H41Z" stroke="black"/>
<path d="M39 40V39H40V40H39Z" stroke="black"/>
<path d="M37 40V39H38V40H37Z" stroke="black"/>
<path d="M37 42V41H38V42H37Z" stroke="black"/>
<path d="M35 42V41H36V42H35Z" stroke="black"/>
<path d="M33 44V43H34V44H33Z" stroke="black"/>
<path d="M31 44V43H32V44H31Z" stroke="black"/>
<path d="M29 44V43H30V44H29Z" stroke="black"/>
<path d="M27 44V43H28V44H27Z" stroke="black"/>
<path d="M25 44V43H26V44H25Z" stroke="black"/>
<path d="M23 44V43H24V44H23Z" stroke="black"/>
<path d="M21 44V43H22V44H21Z" stroke="black"/>
<path d="M19 44V43H20V44H19Z" stroke="black"/>
<path d="M17 44V43H18V44H17Z" stroke="black"/>
<path d="M17 42V41H18V42H17Z" stroke="black"/>
<path d="M33 38V37H34V38H33Z" stroke="black"/>
<path d="M33 36V35H34V36H33Z" stroke="black"/>
<path d="M31 38V37H32V38H31Z" stroke="black"/>
<path d="M29 38V37H30V38H29Z" stroke="black"/>
<path d="M27 38V37H28V38H27Z" stroke="black"/>
<path d="M25 38V37H26V38H25Z" stroke="black"/>
<path d="M23 38V37H24V38H23Z" stroke="black"/>
<path d="M21 38V37H22V38H21Z" stroke="black"/>
<path d="M21 36V35H22V36H21Z" stroke="black"/>
<path d="M19 35V36H20V35H19Z" stroke="black"/>
<path d="M31 30V29H32V30H31Z" stroke="black"/>
<path d="M23 30V29H24V30H23Z" stroke="black"/>
<path d="M21 30V29H22V30H21Z" stroke="black"/>
<path d="M23 26V25H24V26H23Z" stroke="black"/>
<path d="M21 26V25H22V26H21Z" stroke="black"/>
<path d="M19 26V25H20V26H19Z" stroke="black"/>
<path d="M17 26V25H18V26H17Z" stroke="black"/>
<path d="M15 26V25H16V26H15Z" stroke="black"/>
<path d="M37 26V25H38V26H37Z" stroke="black"/>
<path d="M35 26V25H36V26H35Z" stroke="black"/>
<path d="M33 26V25H34V26H33Z" stroke="black"/>
<path d="M37 30V29H38V30H37Z" stroke="black"/>
<path d="M33 30V29H34V30H33Z" stroke="black"/>
<path d="M31 26V25H32V26H31Z" stroke="black"/>
<path d="M35 30V29H36V30H35Z" stroke="black"/>
<path d="M33 42V41H34V42H33Z" stroke="black"/>
<path d="M39 38V37H40V38H39Z" stroke="black"/>
<path d="M33 16V15H34V16H33Z" stroke="black"/>
<path d="M35 16V15H36V16H35Z" stroke="black"/>
<path d="M37 16V15H38V16H37Z" stroke="black"/>
<path d="M37 18V17H38V18H37Z" stroke="black"/>
<path d="M39 18V17H40V18H39Z" stroke="black"/>
<path d="M39 20V19H40V20H39Z" stroke="black"/>
<path d="M39 22V21H40V22H39Z" stroke="black"/>
<path d="M41 22V21H42V22H41Z" stroke="black"/>
<path d="M41 23V24H42V23H41Z" stroke="black"/>
<path d="M43 23V24H44V23H43Z" stroke="black"/>
<path d="M43 25V26H44V25H43Z" stroke="black"/>
<path d="M39 25V26H40V25H39Z" stroke="black"/>
<path d="M45 27V28H46V27H45Z" stroke="black"/>
<path d="M43 27V28H44V27H43Z" stroke="black"/>
<path d="M41 27V28H42V27H41Z" stroke="black"/>
<path d="M39 27V28H40V27H39Z" stroke="black"/>
<path d="M37 27V28H38V27H37Z" stroke="black"/>
<path d="M35 27V28H36V27H35Z" stroke="black"/>
<path d="M33 27V28H34V27H33Z" stroke="black"/>
<path d="M31 27V28H32V27H31Z" stroke="black"/>
<path d="M29 27V28H30V27H29Z" stroke="black"/>
<path d="M27 27V28H28V27H27Z" stroke="black"/>
<path d="M25 27V28H26V27H25Z" stroke="black"/>
<path d="M23 27V28H24V27H23Z" stroke="black"/>
<path d="M21 27V28H22V27H21Z" stroke="black"/>
<path d="M19 27V28H20V27H19Z" stroke="black"/>
<path d="M17 27V28H18V27H17Z" stroke="black"/>
<path d="M15 27V28H16V27H15Z" stroke="black"/>
<path d="M13 27V28H14V27H13Z" stroke="black"/>
<path d="M11 27V28H12V27H11Z" stroke="black"/>
<path d="M9 27V28H10V27H9Z" stroke="black"/>
<path d="M7 27V28H8V27H7Z" stroke="black"/>
<path d="M27 9V10H28V9H27Z" stroke="black"/>
<path d="M27 7V8H28V7H27Z" stroke="black"/>
<path d="M29 7V8H30V7H29Z" stroke="black"/>
<path d="M29 5V6H30V5H29Z" stroke="black"/>
<path d="M29 3V4H30V3H29Z" stroke="black"/>
<path d="M29 1V2H30V1H29Z" stroke="black"/>
<path d="M35 11V12H36V11H35Z" stroke="black"/>
<path d="M37 9V10H38V9H37Z" stroke="black"/>
<path d="M39 7V8H40V7H39Z" stroke="black"/>
<path d="M41 5V6H42V5H41Z" stroke="black"/>
<path d="M19 11V12H20V11H19Z" stroke="black"/>
<path d="M17 11V12H18V11H17Z" stroke="black"/>
<path d="M17 9V10H18V9H17Z" stroke="black"/>
<path d="M17 7V8H18V7H17Z" stroke="black"/>
<path d="M17 5V6H18V5H17Z" stroke="black"/>
<path d="M15 5V6H16V5H15Z" stroke="black"/>
<path d="M16 3V4H15V3H16Z" stroke="black"/>
<path d="M12 13V14H11V13H12Z" stroke="black"/>
<path d="M10 13V14H9V13H10Z" stroke="black"/>
<path d="M10 11V12H9V11H10Z" stroke="black"/>
<path d="M8 11V12H7V11H8Z" stroke="black"/>
<path d="M8 9V10H7V9H8Z" stroke="black"/>
<path d="M8 7V8H7V7H8Z" stroke="black"/>
<path d="M6 20V21H5V20H6Z" stroke="black"/>
<path d="M4 20V21H3V20H4Z" stroke="black"/>
<path d="M2 20V21H1V20H2Z" stroke="black"/>
<path d="M6 31V32H5V31H6Z" stroke="black"/>
<path d="M6 33V34H5V33H6Z" stroke="black"/>
<path d="M4 35V36H3V35H4Z" stroke="black"/>
<path d="M2 37V38H1V37H2Z" stroke="black"/>
<path d="M10 39V40H9V39H10Z" stroke="black"/>
<path d="M10 41V42H9V41H10Z" stroke="black"/>
<path d="M10 43V44H9V43H10Z" stroke="black"/>
<path d="M8 43V44H7V43H8Z" stroke="black"/>
<path d="M8 45V46H7V45H8Z" stroke="black"/>
<path d="M8 47V48H7V47H8Z" stroke="black"/>
<path d="M20 45V46H19V45H20Z" stroke="black"/>
<path d="M20 47V48H19V47H20Z" stroke="black"/>
<path d="M20 49V50H19V49H20Z" stroke="black"/>
<path d="M22 49V50H21V49H22Z" stroke="black"/>
<path d="M22 51V52H21V51H22Z" stroke="black"/>
<path d="M22 53V54H21V53H22Z" stroke="black"/>
<path d="M31 45V46H30V45H31Z" stroke="black"/>
<path d="M31 47V48H30V47H31Z" stroke="black"/>
<path d="M31 49V50H30V49H31Z" stroke="black"/>
<path d="M31 51V52H30V51H31Z" stroke="black"/>
<path d="M40 43V44H39V43H40Z" stroke="black"/>
<path d="M42 45V46H41V45H42Z" stroke="black"/>
<path d="M44 47V48H43V47H44Z" stroke="black"/>
<path d="M46 39V40H45V39H46Z" stroke="black"/>
<path d="M48 39V40H47V39H48Z" stroke="black"/>
<path d="M50 37V38H49V37H50Z" stroke="black"/>
<path d="M52 37V38H51V37H52Z" stroke="black"/>
<path d="M46 31V32H45V31H46Z" stroke="black"/>
<path d="M48 31V32H47V31H48Z" stroke="black"/>
<path d="M50 31V32H49V31H50Z" stroke="black"/>
<path d="M52 29V30H51V29H52Z" stroke="black"/>
<path d="M48 23V24H47V23H48Z" stroke="black"/>
<path d="M50 21V22H49V21H50Z" stroke="black"/>
<path d="M52 21V22H51V21H52Z" stroke="black"/>
<path d="M43 17V18H44V17H43Z" stroke="black"/>
<path d="M43 15V16H44V15H43Z" stroke="black"/>
<path d="M45 15V16H46V15H45Z" stroke="black"/>
<path d="M45 13V14H46V13H45Z" stroke="black"/>
<path d="M47 13V14H48V13H47Z" stroke="black"/>
<path d="M49 13V14H50V13H49Z" stroke="black"/>
<path d="M51 13V14H52V13H51Z" stroke="black"/>
<path d="M39 9V10H40V9H39Z" stroke="black"/>
<path d="M41 7V8H42V7H41Z" stroke="black"/>
</svg>
